pub/img/title.svg

<?xml version="1.0" encoding="UTF-8" standalone="no"?>
<!-- Created with Inkscape (http://www.inkscape.org/) -->

<svg
  width="351.55762"
  height="60.971455"
  viewBox="0 0 351.55762 60.971458"
  version="1.1"
  id="svg1"
  inkscape:version="1.3.2 (091e20e, 2023-11-25, custom)"
  sodipodi:docname="title.svg"
  xmlns:inkscape="http://www.inkscape.org/namespaces/inkscape"
  xmlns:sodipodi="http://sodipodi.sourceforge.net/DTD/sodipodi-0.dtd"
  xmlns="http://www.w3.org/2000/svg"
  xmlns:svg="http://www.w3.org/2000/svg"
  xmlns:rdf="http://www.w3.org/1999/02/22-rdf-syntax-ns#"
  xmlns:cc="http://creativecommons.org/ns#"
  xmlns:dc="http://purl.org/dc/elements/1.1/">
  <title
    id="title12">Devs Forge organization title
  </title>
  <sodipodi:namedview
    id="namedview1"
    pagecolor="#505050"
    bordercolor="#eeeeee"
    borderopacity="1"
    inkscape:showpageshadow="0"
    inkscape:pageopacity="0"
    inkscape:pagecheckerboard="0"
    inkscape:deskcolor="#505050"
    inkscape:document-units="px"
    inkscape:zoom="2.001505"
    inkscape:cx="160.62913"
    inkscape:cy="20.734397"
    inkscape:window-width="1920"
    inkscape:window-height="991"
    inkscape:window-x="-9"
    inkscape:window-y="-9"
    inkscape:window-maximized="1"
    inkscape:current-layer="svg1"/>
  <defs
    id="defs1"/>
  <metadata
    id="metadata12">
    <rdf:RDF>
      <cc:Work
        rdf:about="">
        <cc:license
          rdf:resource="http://creativecommons.org/licenses/by-sa/4.0/"/>
        <dc:title>Devs Forge organization title</dc:title>
        <dc:date>07/03/2024</dc:date>
        <dc:creator>
          <cc:Agent>
            <dc:title>devsforge.org</dc:title>
          </cc:Agent>
        </dc:creator>
        <dc:rights>
          <cc:Agent>
            <dc:title>devsforge.org</dc:title>
          </cc:Agent>
        </dc:rights>
        <dc:publisher>
          <cc:Agent>
            <dc:title>devsforge.org</dc:title>
          </cc:Agent>
        </dc:publisher>
        <dc:identifier>devsforge-title</dc:identifier>
        <dc:language>en</dc:language>
        <dc:subject>
          <rdf:Bag>
            <rdf:li>devsforge</rdf:li>
            <rdf:li>logo</rdf:li>
            <rdf:li>title</rdf:li>
          </rdf:Bag>
        </dc:subject>
        <dc:contributor>
          <cc:Agent>
            <dc:title>Serhii Horodilov</dc:title>
          </cc:Agent>
        </dc:contributor>
      </cc:Work>
      <cc:License
        rdf:about="http://creativecommons.org/licenses/by-sa/4.0/">
        <cc:permits
          rdf:resource="http://creativecommons.org/ns#Reproduction"/>
        <cc:permits
          rdf:resource="http://creativecommons.org/ns#Distribution"/>
        <cc:requires
          rdf:resource="http://creativecommons.org/ns#Notice"/>
        <cc:requires
          rdf:resource="http://creativecommons.org/ns#Attribution"/>
        <cc:permits
          rdf:resource="http://creativecommons.org/ns#DerivativeWorks"/>
        <cc:requires
          rdf:resource="http://creativecommons.org/ns#ShareAlike"/>
      </cc:License>
    </rdf:RDF>
  </metadata>
  <path
    style="font-weight:800;font-size:67.0016px;font-family:'JetBrainsMono Nerd Font';-inkscape-font-specification:'JetBrainsMono Nerd Font, Ultra-Bold';font-variant-ligatures:discretionary-ligatures;letter-spacing:0px;word-spacing:0px;fill:#000000;stroke-width:1.46977;paint-order:markers fill stroke"
    d="M 0,48.911166 V 0 h 15.87938 q 5.092121,0 8.844211,1.943046 3.819091,1.943047 5.896141,5.494131 2.144051,3.484084 2.144051,8.241198 v 17.487418 q 0,4.690112 -2.144051,8.241193 -2.07705,3.55109 -5.896141,5.56114 -3.75209,1.94304 -8.844211,1.94304 z m 10.05024,-9.045213 h 5.82914 q 3.015072,0 4.891117,-1.876045 1.943046,-1.876045 1.943046,-4.824115 V 15.678375 q 0,-2.948071 -1.943046,-4.757114 Q 18.894452,9.045216 15.87938,9.045216 h -5.82914 z m 46.09713,9.715233 q -4.891117,0 -8.576205,-1.80904 -3.618087,-1.87605 -5.628135,-5.15913 -1.943046,-3.350078 -1.943046,-7.772183 v -8.710209 q 0,-4.422105 1.943046,-7.705184 2.010048,-3.35008 5.628135,-5.159123 3.685088,-1.876045 8.576205,-1.876045 4.891117,0 8.442202,1.876045 3.618086,1.809043 5.561133,5.159123 2.010048,3.283079 2.010048,7.705184 v 6.834164 h -22.57954 v 1.876045 q 0,3.484083 1.608038,5.092121 1.675041,1.608042 4.958119,1.608042 2.144051,0 3.75209,-0.67002 1.608038,-0.670015 1.876045,-2.010047 h 9.849235 q -1.072026,4.824117 -5.293126,7.772187 -4.221101,2.94807 -10.184244,2.94807 z M 49.581213,26.130624 v 0.871021 l 12.998311,-0.134003 v -0.871021 q 0,-3.417081 -1.608039,-5.293126 -1.541036,-1.876045 -4.824115,-1.876045 -3.283078,0 -4.958119,1.943046 -1.608038,1.943047 -1.608038,5.360128 z M 90.050208,48.911166 77.788915,12.060288 h 10.385248 l 6.432154,20.703495 q 0.603015,1.876045 1.072026,3.886093 0.536016,2.010048 0.670016,3.75209 0.134,-1.742042 0.60301,-3.75209 0.46902,-2.010048 1.00503,-3.819091 l 6.298151,-20.770497 h 10.51925 l -12.12729,36.850878 z m 44.891102,0.67002 q -4.55611,0 -7.97319,-1.40703 -3.41708,-1.47404 -5.36013,-4.0201 -1.87604,-2.54606 -1.87604,-5.963143 h 9.84923 q 0,1.876045 1.40704,2.814063 1.40703,0.93803 3.95309,0.93803 h 2.94807 q 2.74707,0 4.2211,-0.93803 1.54104,-0.938018 1.54104,-2.68006 0,-1.67504 -1.20603,-2.412058 -1.20603,-0.804019 -3.68509,-1.072025 l -8.4422,-1.005024 q -4.89112,-0.603015 -7.50418,-3.618087 -2.61306,-3.082074 -2.61306,-7.638182 0,-11.189268 14.33834,-11.189268 h 3.14908 q 6.76716,0 10.78725,2.94807 4.0201,2.948071 4.0201,7.90619 h -9.84924 q 0,-1.608039 -1.34003,-2.47906 -1.27303,-0.871021 -3.61808,-0.871021 h -3.14908 q -2.34506,0 -3.55108,0.871021 -1.20603,0.871021 -1.20603,2.412058 0,1.541037 1.13902,2.07705 1.20603,0.536012 3.35008,0.804019 l 8.0402,1.005024 q 5.42713,0.670016 8.17419,3.819091 2.74707,3.149075 2.74707,8.308199 0,5.427133 -3.8861,8.442203 -3.88609,2.94807 -11.45727,2.94807 z"
    id="devs-text"/>
  <path
    id="forge-text"
    style="font-weight:300;font-size:67.0016px;font-family:'JetBrainsMono Nerd Font';-inkscape-font-specification:'JetBrainsMono Nerd Font, Light';font-variant-ligatures:discretionary-ligatures;letter-spacing:0px;word-spacing:0px;fill:#000000;stroke-width:1.46977;paint-order:markers fill stroke"
    d="M 181.24023 0 C 178.15817 0 175.72226 0.82581128 173.93555 2.4785156 C 172.19351 4.086553 171.32227 6.2972639 171.32227 9.1113281 L 171.32227 17.085938 L 160.46875 17.085938 L 160.46875 21.910156 L 171.32227 21.910156 L 171.32227 48.912109 L 176.68359 48.912109 L 176.68359 21.910156 L 191.89258 21.910156 L 191.89258 17.085938 L 176.68359 17.085938 L 176.68359 9.1113281 C 176.68359 6.252596 178.20284 4.8242188 181.24023 4.8242188 L 307.64453 4.8242188 L 307.64453 0 L 181.24023 0 z M 260.09961 11.390625 C 257.33021 11.390625 255.07603 12.06036 253.33398 13.400391 C 251.63661 14.740421 250.5856 16.571812 250.18359 18.894531 L 250.18359 12.060547 L 244.82422 12.060547 L 244.82422 48.912109 L 250.18359 48.912109 L 250.18359 25.259766 C 250.18359 22.311698 250.89876 20.033818 252.32812 18.425781 C 253.75749 16.817745 255.83386 16.013672 258.55859 16.013672 C 264.05272 16.013672 266.80078 18.872379 266.80078 24.589844 L 266.80078 27.806641 L 272.09375 27.806641 L 272.09375 24.589844 C 272.09375 20.391081 271.06643 17.153052 269.01172 14.875 C 266.957 12.55228 263.98569 11.390625 260.09961 11.390625 z M 295.61133 11.390625 C 291.85924 11.390625 288.88794 12.619449 286.69922 15.076172 C 284.5105 17.532894 283.41602 20.838093 283.41602 24.992188 L 283.41602 32.830078 C 283.41602 37.028841 284.5105 40.334035 286.69922 42.746094 C 288.88794 45.113481 291.85924 46.298828 295.61133 46.298828 C 298.2914 46.298828 300.5021 45.69431 302.24414 44.488281 C 303.98618 43.282252 305.08066 41.608895 305.52734 39.464844 L 305.66211 39.464844 L 305.52734 45.896484 L 305.52734 49.179688 C 305.52734 51.368405 304.90304 53.065456 303.65234 54.271484 C 302.40166 55.522183 300.65917 56.146484 298.42578 56.146484 L 163.64453 56.146484 L 163.64453 60.970703 L 298.35742 60.970703 C 302.24351 60.970703 305.28199 59.921644 307.4707 57.822266 C 309.70409 55.767548 310.82031 52.887104 310.82031 49.179688 L 310.82031 12.060547 L 305.59375 12.060547 L 305.59375 18.425781 L 305.52734 18.425781 C 305.08066 16.237064 303.98618 14.516321 302.24414 13.265625 C 300.5021 12.014929 298.2914 11.390625 295.61133 11.390625 z M 337.48633 11.390625 C 333.19823 11.390625 329.78239 12.684665 327.23633 15.275391 C 324.69026 17.821449 323.41602 21.328153 323.41602 25.794922 L 323.41602 35.175781 C 323.41602 39.642547 324.69026 43.170988 327.23633 45.761719 C 329.78239 48.307776 333.19823 49.582031 337.48633 49.582031 C 341.28308 49.582031 344.4322 48.687096 346.93359 46.900391 C 349.43498 45.113679 350.88706 42.679727 351.28906 39.597656 L 345.99609 39.597656 C 345.68342 41.250361 344.7687 42.568089 343.25 43.550781 C 341.73129 44.4888 339.80905 44.958984 337.48633 44.958984 C 334.7616 44.958984 332.59631 44.131221 330.98828 42.478516 C 329.38024 40.781143 328.57617 38.525001 328.57617 35.710938 L 328.57617 31.826172 L 351.55859 31.826172 L 351.55859 25.259766 C 351.55859 21.061002 350.28434 17.710375 347.73828 15.208984 C 345.19222 12.662926 341.77442 11.390625 337.48633 11.390625 z M 216.88477 11.457031 C 212.552 11.457031 209.11246 12.729333 206.56641 15.275391 C 204.06502 17.821449 202.81445 21.351844 202.81445 25.863281 L 202.81445 35.109375 C 202.81445 39.620808 204.08676 43.149248 206.63281 45.695312 C 209.17887 48.24137 212.59667 49.513672 216.88477 49.513672 C 221.17287 49.513672 224.58871 48.24137 227.13477 45.695312 C 229.68082 43.149248 230.95508 39.620808 230.95508 35.109375 L 230.95508 25.863281 C 230.95508 21.351844 229.68082 17.821449 227.13477 15.275391 C 224.63337 12.729333 221.21753 11.457031 216.88477 11.457031 z M 337.48633 15.8125 C 340.30039 15.8125 342.48936 16.638311 344.05273 18.291016 C 345.6161 19.94372 346.39844 22.26703 346.39844 25.259766 L 346.39844 27.605469 L 328.57617 27.605469 L 328.57617 25.259766 C 328.57617 22.26703 329.35851 19.94372 330.92188 18.291016 C 332.48525 16.638311 334.67226 15.8125 337.48633 15.8125 z M 297.15234 16.013672 C 299.78773 16.013672 301.84237 16.839483 303.31641 18.492188 C 304.8351 20.100224 305.59375 22.356366 305.59375 25.259766 L 305.59375 32.628906 C 305.59375 35.532306 304.8351 37.812139 303.31641 39.464844 C 301.7977 41.072875 299.74307 41.876953 297.15234 41.876953 C 294.47228 41.876953 292.3959 41.094619 290.92188 39.53125 C 289.44785 37.967881 288.71094 35.824339 288.71094 33.099609 L 288.71094 24.791016 C 288.71094 22.066287 289.44785 19.922744 290.92188 18.359375 C 292.3959 16.796006 294.47228 16.013672 297.15234 16.013672 z M 216.88477 16.214844 C 219.6095 16.214844 221.75303 16.995225 223.31641 18.558594 C 224.87977 20.121963 225.66211 22.401796 225.66211 25.394531 L 225.66211 35.578125 C 225.66211 38.570861 224.87977 40.848739 223.31641 42.412109 C 221.75303 43.975474 219.6095 44.757813 216.88477 44.757812 C 214.16004 44.757813 212.0165 43.975474 210.45312 42.412109 C 208.88975 40.848739 208.10742 38.570861 208.10742 35.578125 L 208.10742 25.394531 C 208.10742 22.401796 208.88975 20.121963 210.45312 18.558594 C 212.0165 16.995225 214.16004 16.214844 216.88477 16.214844 z "/>
</svg>

<svg inkscape:version="1.3.2 (091e20e, 2023-11-25, custom)" sodipodi:docname="title.svg" version="1.1" viewBox="0 0 351.56 60.971" xmlns="http://www.w3.org/2000/svg" xmlns:cc="http://creativecommons.org/ns#" xmlns:dc="http://purl.org/dc/elements/1.1/" xmlns:inkscape="http://www.inkscape.org/namespaces/inkscape" xmlns:rdf="http://www.w3.org/1999/02/22-rdf-syntax-ns#" xmlns:sodipodi="http://sodipodi.sourceforge.net/DTD/sodipodi-0.dtd">
    <style>@media(prefers-color-scheme:dark){path{filter:invert(100%)};:root{background:#1e1f22}}</style>
    <title>DevsForge organization title</title>
    <sodipodi:namedview bordercolor="#eeeeee" borderopacity="1" inkscape:current-layer="svg1" inkscape:cx="160.62913" inkscape:cy="20.734397" inkscape:deskcolor="#505050" inkscape:document-units="px" inkscape:pagecheckerboard="0" inkscape:pageopacity="0" inkscape:showpageshadow="0" inkscape:window-height="1009" inkscape:window-maximized="1" inkscape:window-width="1920" inkscape:window-x="-8" inkscape:window-y="-8" inkscape:zoom="2.001505" pagecolor="#505050"/>
    <metadata>
        <rdf:RDF>
            <cc:Work rdf:about="">
                <cc:license rdf:resource="https://creativecommons.org/licenses/by-sa/4.0/"/>
                <dc:title>Devs Forge organization title</dc:title>
                <dc:date>07/03/2024</dc:date>
                <dc:creator>
                    <cc:Agent>
                        <dc:title>devsforge.org</dc:title>
                    </cc:Agent>
                </dc:creator>
                <dc:rights>
                    <cc:Agent>
                        <dc:title>devsforge.org</dc:title>
                    </cc:Agent>
                </dc:rights>
                <dc:publisher>
                    <cc:Agent>
                        <dc:title>devsforge.org</dc:title>
                    </cc:Agent>
                </dc:publisher>
                <dc:identifier>devsforge-title</dc:identifier>
                <dc:language>en</dc:language>
                <dc:subject>
                    <rdf:Bag>
                        <rdf:li>devsforge</rdf:li>
                        <rdf:li>logo</rdf:li>
                        <rdf:li>title</rdf:li>
                    </rdf:Bag>
                </dc:subject>
                <dc:contributor>
                    <cc:Agent>
                        <dc:title>Serhii Horodilov</dc:title>
                    </cc:Agent>
                </dc:contributor>
            </cc:Work>
            <cc:License rdf:about="https://creativecommons.org/licenses/by-sa/4.0/">
                <cc:permits rdf:resource="https://creativecommons.org/ns#Reproduction"/>
                <cc:permits rdf:resource="https://creativecommons.org/ns#Distribution"/>
                <cc:requires rdf:resource="https://creativecommons.org/ns#Notice"/>
                <cc:requires rdf:resource="https://creativecommons.org/ns#Attribution"/>
                <cc:permits rdf:resource="https://creativecommons.org/ns#DerivativeWorks"/>
                <cc:requires rdf:resource="https://creativecommons.org/ns#ShareAlike"/>
            </cc:License>
        </rdf:RDF>
    </metadata>
    <path id="a"
          d="m0 48.911v-48.911h15.879q5.0921 0 8.8442 1.943 3.8191 1.943 5.8961 5.4941 2.1441 3.4841 2.1441 8.2412v17.487q0 4.6901-2.1441 8.2412-2.077 3.5511-5.8961 5.5611-3.7521 1.943-8.8442 1.943zm10.05-9.0452h5.8291q3.0151 0 4.8911-1.876 1.943-1.876 1.943-4.8241v-17.487q0-2.9481-1.943-4.7571-1.876-1.876-4.8911-1.876h-5.8291zm46.097 9.7152q-4.8911 0-8.5762-1.809-3.6181-1.876-5.6281-5.1591-1.943-3.3501-1.943-7.7722v-8.7102q0-4.4221 1.943-7.7052 2.01-3.3501 5.6281-5.1591 3.6851-1.876 8.5762-1.876t8.4422 1.876q3.6181 1.809 5.5611 5.1591 2.01 3.2831 2.01 7.7052v6.8342h-22.58v1.876q0 3.4841 1.608 5.0921 1.675 1.608 4.9581 1.608 2.1441 0 3.7521-0.67002 1.608-0.67002 1.876-2.01h9.8492q-1.072 4.8241-5.2931 7.7722-4.2211 2.9481-10.184 2.9481zm-6.5662-23.451v0.87102l12.998-0.134v-0.87102q0-3.4171-1.608-5.2931-1.541-1.876-4.8241-1.876-3.2831 0-4.9581 1.943-1.608 1.943-1.608 5.3601zm40.469 22.781-12.261-36.851h10.385l6.4322 20.703q0.60302 1.876 1.072 3.8861 0.53602 2.01 0.67002 3.7521 0.134-1.742 0.60301-3.7521 0.46902-2.01 1.005-3.8191l6.2982-20.77h10.519l-12.127 36.851zm44.891 0.67002q-4.5561 0-7.9732-1.407-3.4171-1.474-5.3601-4.0201-1.876-2.5461-1.876-5.9631h9.8492q0 1.876 1.407 2.8141 1.407 0.93803 3.9531 0.93803h2.9481q2.7471 0 4.2211-0.93803 1.541-0.93802 1.541-2.6801 0-1.675-1.206-2.4121-1.206-0.80402-3.6851-1.072l-8.4422-1.005q-4.8911-0.60302-7.5042-3.6181-2.6131-3.0821-2.6131-7.6382 0-11.189 14.338-11.189h3.1491q6.7672 0 10.787 2.9481 4.0201 2.9481 4.0201 7.9062h-9.8492q0-1.608-1.34-2.4791-1.273-0.87102-3.6181-0.87102h-3.1491q-2.3451 0-3.5511 0.87102-1.206 0.87102-1.206 2.4121t1.139 2.077q1.206 0.53601 3.3501 0.80402l8.0402 1.005q5.4271 0.67002 8.1742 3.8191 2.7471 3.1491 2.7471 8.3082 0 5.4271-3.8861 8.4422-3.8861 2.9481-11.457 2.9481z"
          stroke-width="1.4698" style="font-variant-ligatures:discretionary-ligatures;paint-order:markers fill stroke"/>
    <path id="b"
          d="m181.24 0c-3.0821 0-5.518 0.82581-7.3047 2.4785-1.742 1.608-2.6133 3.8187-2.6133 6.6328v7.9746h-10.854v4.8242h10.854v27.002h5.3613v-27.002h15.209v-4.8242h-15.209v-7.9746c0-2.8587 1.5192-4.2871 4.5566-4.2871h126.4v-4.8242h-126.4zm78.859 11.391c-2.7694 0-5.0236 0.66974-6.7656 2.0098-1.6974 1.34-2.7484 3.1714-3.1504 5.4941v-6.834h-5.3594v36.852h5.3594v-23.652c0-2.9481 0.71517-5.2259 2.1445-6.834 1.4294-1.608 3.5057-2.4121 6.2305-2.4121 5.4941 0 8.2422 2.8587 8.2422 8.5762v3.2168h5.293v-3.2168c0-4.1988-1.0273-7.4368-3.082-9.7148-2.0547-2.3227-5.026-3.4844-8.9121-3.4844zm35.512 0c-3.7521 0-6.7234 1.2288-8.9121 3.6855-2.1887 2.4567-3.2832 5.7619-3.2832 9.916v7.8379c0 4.1988 1.0945 7.504 3.2832 9.916 2.1887 2.3674 5.16 3.5527 8.9121 3.5527 2.6801 0 4.8908-0.60452 6.6328-1.8105s2.8365-2.8794 3.2832-5.0234h0.13477l-0.13477 6.4316v3.2832c0 2.1887-0.6243 3.8858-1.875 5.0918-1.2507 1.2507-2.9932 1.875-5.2266 1.875h-134.78v4.8242h134.71c3.8861 0 6.9246-1.0491 9.1133-3.1484 2.2334-2.0547 3.3496-4.9352 3.3496-8.6426v-37.119h-5.2266v6.3652h-0.06641c-0.44668-2.1887-1.5412-3.9095-3.2832-5.1602s-3.9527-1.875-6.6328-1.875zm41.875 0c-4.2881 0-7.7039 1.294-10.25 3.8848-2.5461 2.5461-3.8203 6.0528-3.8203 10.52v9.3809c0 4.4668 1.2742 7.9952 3.8203 10.586 2.5461 2.5461 5.9619 3.8203 10.25 3.8203 3.7968 0 6.9459-0.89494 9.4473-2.6816 2.5014-1.7867 3.9535-4.2207 4.3555-7.3027h-5.293c-0.31267 1.6527-1.2274 2.9704-2.7461 3.9531-1.5187 0.93802-3.441 1.4082-5.7637 1.4082-2.7247 0-4.89-0.82776-6.498-2.4805-1.608-1.6974-2.4121-3.9535-2.4121-6.7676v-3.8848h22.982v-6.5664c0-4.1988-1.2742-7.5494-3.8203-10.051-2.5461-2.5461-5.9639-3.8184-10.252-3.8184zm-120.6 0.066406c-4.3328 0-7.7723 1.2723-10.318 3.8184-2.5014 2.5461-3.752 6.0765-3.752 10.588v9.2461c0 4.5114 1.2723 8.0399 3.8184 10.586 2.5461 2.5461 5.9639 3.8184 10.252 3.8184s7.7039-1.2723 10.25-3.8184c2.546-2.5461 3.8203-6.0745 3.8203-10.586v-9.2461c0-4.5114-1.2743-8.0418-3.8203-10.588-2.5014-2.5461-5.9172-3.8184-10.25-3.8184zm120.6 4.3555c2.8141 0 5.003 0.82581 6.5664 2.4785 1.5634 1.6527 2.3457 3.976 2.3457 6.9688v2.3457h-17.822v-2.3457c0-2.9927 0.78234-5.316 2.3457-6.9688 1.5634-1.6527 3.7504-2.4785 6.5644-2.4785zm-40.334 0.20117c2.6354 0 4.69 0.82581 6.1641 2.4785 1.5187 1.608 2.2773 3.8642 2.2773 6.7676v7.3691c0 2.9034-0.75865 5.1832-2.2773 6.8359-1.5187 1.608-3.5733 2.4121-6.1641 2.4121-2.6801 0-4.7564-0.78233-6.2305-2.3457-1.474-1.5634-2.2109-3.7069-2.2109-6.4316v-8.3086c0-2.7247 0.73691-4.8683 2.2109-6.4316 1.474-1.5634 3.5504-2.3457 6.2305-2.3457zm-80.268 0.20117c2.7247 0 4.8683 0.78038 6.4316 2.3438 1.5634 1.5634 2.3457 3.8432 2.3457 6.8359v10.184c0 2.9927-0.78234 5.2706-2.3457 6.834-1.5634 1.5634-3.7069 2.3457-6.4316 2.3457-2.7247 1e-6 -4.8683-0.78234-6.4316-2.3457-1.5634-1.5634-2.3457-3.8412-2.3457-6.834v-10.184c0-2.9927 0.78233-5.2726 2.3457-6.8359 1.5634-1.5634 3.7069-2.3438 6.4316-2.3438z"
          stroke-width="1.4698" style="font-variant-ligatures:discretionary-ligatures;paint-order:markers fill stroke"/>
</svg>
